X:36
T:Bourre - L'alambic (N. Pignol)
S:Trad 1, 118
M:3/8
L:1/16
K:C
c3BAB|c2B2A2|G2A2B2|E3GBE|\
c3BAB|c2B2A2|G2A3^G|A6:|
|:[A3e3]dcd|ecAcfc|ecBcec|gcdgdc|\
e3dcd|e2d2B2|1 [A6c6]|B2ABcA:|2 c4B2|A6||
